app/img/mainPage/adal-burger.svg

<svg width="161" height="48" viewBox="0 0 161 48" fill="none" xmlns="http://www.w3.org/2000/svg">
<path fill-rule="evenodd" clip-rule="evenodd" d="M39.0414 28.2166C36.6858 29.0557 34.0255 28.4532 32.2603 26.6789L29.5909 23.9987L31.0664 22.5156H31.687C34.5807 22.5156 37.2823 21.1053 38.967 18.8224L44.1167 23.9997L41.4513 26.6789C40.7624 27.3724 39.9497 27.89 39.0414 28.2166ZM34.4168 38.3899C33.4442 38.3899 32.5068 38.1786 31.6337 37.761C29.3757 36.6833 27.9153 34.3651 27.9153 31.8548V28.0656H30.0073L30.4449 28.5044C32.1688 30.2382 34.5063 31.1703 36.881 31.1703C37.3165 31.1703 37.7531 31.1319 38.1866 31.0682V38.3899H34.4168ZM21.2065 41.6657C20.5185 40.9742 20.0066 40.1603 19.6847 39.2444C18.8449 36.8797 19.4423 34.2046 21.2065 32.4272L23.8719 29.7481L25.3484 31.2312V31.854C25.3484 34.7566 26.7495 37.4711 29.0216 39.1726L23.8729 44.3479L21.2065 41.6657ZM9.55717 34.5986C9.55717 33.619 9.76839 32.6798 10.1878 31.8002C11.255 29.5315 13.5593 28.0656 16.0567 28.0656H19.8275V30.1634L19.39 30.6032C17.3492 32.6595 16.4319 35.5753 16.8432 38.3899H9.55717V34.5986ZM6.29648 21.3207C6.98847 20.6241 7.79815 20.1085 8.70338 19.787C11.06 18.9438 13.7224 19.5464 15.4876 21.3217L18.1529 23.9998L16.6774 25.4839H16.0568C13.1672 25.4839 10.4676 26.8923 8.77881 29.1741L3.63108 23.9998L6.29648 21.3207ZM13.331 9.61133C14.3046 9.61133 15.241 9.82263 16.114 10.2392C18.3701 11.3169 19.8275 13.6351 19.8275 16.1454V19.9346H17.7394L17.3039 19.4958C15.2611 17.4435 12.3604 16.5195 9.55717 16.9319V9.61133H13.331ZM23.8719 3.65063L26.5413 6.3328C27.2343 7.02938 27.7473 7.84323 28.0671 8.75312C28.9049 11.1189 28.3055 13.796 26.5413 15.5723L23.8729 18.2524L22.3954 16.7683V16.1455C22.3954 13.243 20.9963 10.5294 18.7252 8.82693L23.8719 3.65063ZM25.3485 25.4846V27.5824L23.8719 26.0983L22.3954 27.5824V25.4846H20.3084L21.7849 24.0005L20.3084 22.5163H22.3954V20.4175L23.8719 21.9017L25.3485 20.4185V22.5163H27.4355L25.959 24.0015L27.4365 25.4846H25.3485ZM38.1866 13.4015C38.1866 14.3782 37.9753 15.3164 37.5559 16.1969C36.4928 18.4676 34.1895 19.9346 31.687 19.9346H27.9153V17.8408L28.3588 17.397C30.3976 15.3427 31.3159 12.4259 30.9075 9.61133H38.1866V13.4015ZM47.7477 24L40.2313 16.4428C40.5773 15.4723 40.7543 14.4522 40.7543 13.4017V7.03046H30.133C29.6935 6.10034 29.099 5.25515 28.3578 4.50904L23.8719 0L16.3605 7.55415C15.3909 7.20738 14.377 7.03046 13.331 7.03046H6.98936V17.7116C6.06402 18.1534 5.22216 18.7499 4.48188 19.496L0 24L7.51238 31.5511C7.16638 32.5247 6.98936 33.5458 6.98936 34.5983V40.9695H17.6197C18.0593 41.9017 18.6517 42.7479 19.39 43.49L23.8719 48L31.3873 40.4459C32.3568 40.7926 33.3707 40.9695 34.4167 40.9695H40.7543V30.2904C41.6847 29.8446 42.5276 29.2481 43.2668 28.504L47.7477 24Z" fill="#25B072"/>
<path fill-rule="evenodd" clip-rule="evenodd" d="M74.8404 28.5052L70.086 19.4679L64.2969 30.6232C65.0805 30.2167 66.289 29.7603 67.9212 29.2583C69.5524 28.7572 71.64 28.5052 74.1818 28.5052H74.8404ZM65.9912 11.6543H71.2162L84.395 36.6013H79.0765L77.1475 32.9303H74.2286C72.7224 32.9303 71.2314 33.0563 69.7567 33.3063C68.282 33.5584 66.9405 33.8633 65.7331 34.2241C64.5246 34.5849 63.5042 34.9619 62.6729 35.3532C61.8415 35.7465 61.3313 36.0677 61.1433 36.3177L61.002 36.6013H55.9193L67.5919 14.7145L65.9912 11.6543Z" fill="white"/>
<path fill-rule="evenodd" clip-rule="evenodd" d="M93.3374 17.0672V31.7055H98.1671C100.512 31.7055 102.324 31.0631 103.606 29.7765C104.887 28.4898 105.528 26.6695 105.528 24.3157C105.528 21.9314 104.887 20.1274 103.606 18.9037C102.324 17.68 100.512 17.0672 98.1671 17.0672H93.3374ZM83.0287 12.2192H98.1386C99.9588 12.2192 101.629 12.4774 103.151 12.9957C104.673 13.5141 105.976 14.2834 107.058 15.3028C108.14 16.3232 108.98 17.5774 109.576 19.0683C110.171 20.5593 110.47 22.2769 110.47 24.2222C110.47 26.1054 110.18 27.8149 109.6 29.3526C109.019 30.8903 108.187 32.1923 107.105 33.2594C106.022 34.3256 104.719 35.1498 103.198 35.7301C101.675 36.3115 99.9893 36.6011 98.1386 36.6011H88.2069V17.0672H85.1945L83.0287 12.2192Z" fill="white"/>
<path fill-rule="evenodd" clip-rule="evenodd" d="M129.675 28.5052L124.92 19.4679L119.131 30.6232C119.915 30.2167 121.123 29.7603 122.755 29.2583C124.387 28.7572 126.474 28.5052 129.016 28.5052H129.675ZM120.825 11.6543H126.05L139.229 36.6013H133.911L131.982 32.9303H129.063C127.556 32.9303 126.066 33.0563 124.591 33.3063C123.116 33.5584 121.775 33.8633 120.567 34.2241C119.359 34.5849 118.338 34.9619 117.507 35.3532C116.676 35.7465 116.165 36.0677 115.977 36.3177L115.836 36.6013H110.753L122.426 14.7145L120.825 11.6543Z" fill="white"/>
<path fill-rule="evenodd" clip-rule="evenodd" d="M142.336 36.6006V12.2197H147.372V31.7059H160.316V36.6006H142.336Z" fill="white"/>
</svg>

<svg width="161" height="48" fill="none" xmlns="http://www.w3.org/2000/svg"><path fill-rule="evenodd" clip-rule="evenodd" d="M39.041 28.217a6.517 6.517 0 0 1-6.78-1.538l-2.67-2.68 1.475-1.483h.621c2.894 0 5.595-1.41 7.28-3.694L44.117 24l-2.666 2.679a6.455 6.455 0 0 1-2.41 1.538ZM34.417 38.39c-.973 0-1.91-.211-2.783-.629a6.573 6.573 0 0 1-3.719-5.906v-3.79h2.092l.438.44a9.087 9.087 0 0 0 6.436 2.665c.435 0 .872-.038 1.306-.102v7.322h-3.77Zm-13.21 3.276a6.43 6.43 0 0 1-1.522-2.422 6.593 6.593 0 0 1 1.521-6.817l2.666-2.679 1.476 1.483v.623a9.18 9.18 0 0 0 3.674 7.319l-5.15 5.175-2.666-2.682Zm-11.65-7.067c0-.98.211-1.92.63-2.799a6.517 6.517 0 0 1 5.87-3.734h3.77v2.097l-.437.44c-2.04 2.056-2.958 4.972-2.547 7.787H9.557v-3.791ZM6.297 21.32a6.381 6.381 0 0 1 2.406-1.534 6.51 6.51 0 0 1 6.785 1.535L18.153 24l-1.476 1.484h-.62c-2.89 0-5.59 1.408-7.278 3.69L3.63 24l2.665-2.68ZM13.33 9.61c.974 0 1.91.212 2.783.628a6.572 6.572 0 0 1 3.713 5.906v3.79H17.74l-.435-.44a9.09 9.09 0 0 0-7.747-2.563v-7.32h3.774Zm10.54-5.96 2.67 2.682a6.434 6.434 0 0 1 1.526 2.42 6.601 6.601 0 0 1-1.526 6.82l-2.668 2.68-1.478-1.485v-.623c0-2.902-1.399-5.616-3.67-7.318l5.147-5.176Zm1.478 21.834v2.097l-1.477-1.484-1.477 1.484v-2.097h-2.087L21.785 24l-1.477-1.484h2.087v-2.098l1.477 1.484 1.477-1.483v2.097h2.087l-1.477 1.486 1.477 1.483H25.35Zm12.838-12.083c0 .976-.212 1.914-.631 2.795a6.507 6.507 0 0 1-5.869 3.738h-3.772V17.84l.444-.444c2.039-2.054 2.957-4.971 2.548-7.786h7.28v3.79ZM47.747 24l-7.516-7.557c.346-.97.523-1.99.523-3.041V7.03H30.133a9.055 9.055 0 0 0-1.775-2.521L23.872 0 16.36 7.554a8.949 8.949 0 0 0-3.029-.524H6.989v10.682a8.954 8.954 0 0 0-2.507 1.784L0 24l7.512 7.551a9.058 9.058 0 0 0-.523 3.047v6.371h10.63a9.007 9.007 0 0 0 1.771 2.521L23.872 48l7.515-7.554a8.95 8.95 0 0 0 3.03.523h6.337V30.29a9.018 9.018 0 0 0 2.513-1.786L47.747 24Z" fill="#25B072"/><path fill-rule="evenodd" clip-rule="evenodd" d="m74.84 28.505-4.754-9.037-5.79 11.155c.784-.406 1.993-.863 3.625-1.365 1.631-.5 3.719-.753 6.26-.753h.66Zm-8.849-16.85h5.225L84.395 36.6h-5.319l-1.928-3.67h-2.92c-1.506 0-2.997.125-4.471.375a34.287 34.287 0 0 0-4.024.918c-1.208.36-2.229.738-3.06 1.13-.831.392-1.342.714-1.53.964l-.141.283h-5.083l11.673-21.886-1.6-3.06ZM93.337 17.067v14.639h4.83c2.345 0 4.157-.643 5.439-1.93 1.281-1.286 1.922-3.107 1.922-5.46 0-2.385-.641-4.189-1.922-5.412-1.282-1.224-3.094-1.837-5.439-1.837h-4.83ZM83.03 12.22h15.11c1.82 0 3.49.258 5.012.777 1.522.518 2.825 1.287 3.907 2.307 1.082 1.02 1.922 2.274 2.518 3.765.595 1.491.894 3.209.894 5.154 0 1.883-.29 3.593-.87 5.13-.581 1.538-1.413 2.84-2.495 3.907-1.083 1.067-2.386 1.89-3.907 2.471-1.523.582-3.209.871-5.06.871h-9.931V17.067h-3.012l-2.166-4.848ZM129.675 28.505l-4.755-9.037-5.789 11.155c.784-.406 1.992-.863 3.624-1.365 1.632-.5 3.719-.753 6.261-.753h.659Zm-8.85-16.85h5.225L139.229 36.6h-5.318l-1.929-3.67h-2.919c-1.507 0-2.997.125-4.472.375a34.309 34.309 0 0 0-4.024.918c-1.208.36-2.229.738-3.06 1.13-.831.392-1.342.714-1.53.964l-.141.283h-5.083l11.673-21.886-1.601-3.06ZM142.336 36.6V12.22h5.036v19.486h12.944V36.6h-17.98Z" fill="#fff"/></svg>
